X:7
T:Am Bodach L\'uideach Odhar
R:Strathspey
B:The Athole Collection
M:C
L:1/8
K:D
D>DF>D A>DF>D|E/E/E F>A B>AB>d|D/D/D F>D A>DF>D|
E>FE>D B,2 A,>B,:|
|:d>ed>c d>AA>d|B>cd>e f>BB>c|d>ed>B A>Fd>B|A>FE>D B,2 A,>B,:|
|:D>AF>A D>AF>A|E/E/E F>A B>AB>d|D>AF>A A>DF>D|
A,>A G/F/E/D/ B,2 A,>B,:|
d>ed>c d>AA>d|B/A/B/c/ d/c/d/e/ f<B B>c|d>ed>B A>Fd>B|
A>FE>D B,2 A,>B,|d>ed>c d>AA>d|B>cd>e f>BB>c|d>fB>d A>dF>d|
E>FE>D B,2 A,>B||

